X: 12435
T: Farewell To Ballinahulla
R: slide
M: 12/8
K: Gmajor
GAG GAB dBd g2d|dBG GAB dAG FGA|
GAG GAB dBd g2d|1 Bcd ecA AGF G2D:|2 Bcd ecA AGF GBd||
gag ged efg d2d|gdB GBd gAG FGA|
gag ged efg d2c|Bcd ecA AGF GBd|
gag ged efg d2d|gdB GBd gAG FGA|
BAB cBc def g2d|Bcd ecA AGF G3||

